X:1
T: Farewell to Crammond
C:Muriel A Johnstone
R:Strathspey
%Q: 128
K:A
M:4/4
L:1/16
|:E3D|CA,3 C3E A3B c3A|dF3 F3A GABA GFED|CA,3 C3E A3B c2A2|ff3 e3d cA3 A2ED|
CA,3 C3E A3B c3A|dF3 F3A GABA GFED|CA,3 C3E A3B c2A2|ff3 e3d c2A2 A2c2|
ee3 f3e dc3 c2B2|AA3 c3A E4 E2A2|FF3 f3e d2c2 B2A2|BF3 B3A G4 F2E2|
ee3 a3g f2e2 e2d2|cA3 f3e e6 E2|FD3 F3A d3e f2d2|ec3 B3A A4:|
